src/assets/outline/AlignLeft.svg

<svg width="24" height="24" viewBox="0 0 24 24"  xmlns="http://www.w3.org/2000/svg">
<path d="M16.9001 20H5.1001C4.6901 20 4.3501 19.66 4.3501 19.25C4.3501 18.84 4.6901 18.5 5.1001 18.5H16.9001C17.9101 18.5 18.2501 18.29 18.2501 17.02V15.98C18.2501 14.71 17.9101 14.5 16.9001 14.5H5.1001C4.6901 14.5 4.3501 14.16 4.3501 13.75C4.3501 13.34 4.6901 13 5.1001 13H16.9001C18.8201 13 19.7501 13.98 19.7501 15.98V17.02C19.7501 19.02 18.8201 20 16.9001 20Z" />
<path d="M11.9001 11.5H5.1001C4.6901 11.5 4.3501 11.16 4.3501 10.75C4.3501 10.34 4.6901 10 5.1001 10H11.9001C12.9101 10 13.2501 9.79 13.2501 8.52V7.48C13.2501 6.21 12.9101 6 11.9001 6H5.1001C4.6901 6 4.3501 5.66 4.3501 5.25C4.3501 4.84 4.6901 4.5 5.1001 4.5H11.9001C13.8201 4.5 14.7501 5.48 14.7501 7.48V8.52C14.7501 10.52 13.8201 11.5 11.9001 11.5Z" />
<path d="M5 22.7402C4.59 22.7402 4.25 22.4002 4.25 21.9902V1.99023C4.25 1.58023 4.59 1.24023 5 1.24023C5.41 1.24023 5.75 1.58023 5.75 1.99023V21.9902C5.75 22.4002 5.41 22.7402 5 22.7402Z" />
</svg>

<?xml version="1.0" encoding="UTF-8"?>
<svg width="24" height="24" viewBox="0 0 24 24" xmlns="http://www.w3.org/2000/svg">
 <path d="m16.9 20h-11.8c-0.41 0-0.75-0.34-0.75-0.75s0.34-0.75 0.75-0.75h11.8c1.01 0 1.35-0.21 1.35-1.48v-1.04c0-1.27-0.34-1.48-1.35-1.48h-11.8c-0.41 0-0.75-0.34-0.75-0.75s0.34-0.75 0.75-0.75h11.8c1.92 0 2.85 0.98 2.85 2.98v1.04c0 2-0.93 2.98-2.85 2.98z"/>
 <path d="m11.9 11.5h-6.8c-0.41 0-0.75-0.34-0.75-0.75s0.34-0.75 0.75-0.75h6.8c1.01 0 1.35-0.21 1.35-1.48v-1.04c0-1.27-0.34-1.48-1.35-1.48h-6.8c-0.41 0-0.75-0.34-0.75-0.75s0.34-0.75 0.75-0.75h6.8c1.92 0 2.85 0.98 2.85 2.98v1.04c0 2-0.93 2.98-2.85 2.98z"/>
 <path d="m5 22.74c-0.41 0-0.75-0.34-0.75-0.75v-20c0-0.41 0.34-0.75 0.75-0.75s0.75 0.34 0.75 0.75v20c0 0.41-0.34 0.75-0.75 0.75z"/>
</svg>
